!!!COM: Palestrina, Giovanni Perluigi da
!!!OPR: Missa Petra sancta
!!!OTL: Agnus II
**kern	**kern	**kern	**kern	**kern	**kern
*Ibass	*Ibass	*Itenor	*Itenor	*Icalto	*Icant
!Bassus 2	!Bassus 1	!Tenor 2	!Tenor 1	!Altus	!Cantus
*clefF4	*clefF4	*clefGv2	*clefGv2	*clefG2	*clefG2
*k[]	*k[]	*k[]	*k[]	*k[]	*k[]
*A:aeo	*A:aeo	*A:aeo	*A:aeo	*A:aeo	*A:aeo
*M4/2	*M4/2	*M4/2	*M4/2	*M4/2	*M4/2
=1	=1	=1	=1	=1	=1
0r	0r	0r	0r	1.a	1r
.	.	.	.	.	[1ee
.	.	.	.	2a	.
=2	=2	=2	=2	=2	=2
0r	0r	0r	1r	2g	2ee]
.	.	.	.	2e	2ee
.	.	.	[1a	2.f	2dd
.	.	.	.	.	2cc
.	.	.	.	4e	.
=3	=3	=3	=3	=3	=3
0r	0r	0r	2a]	2d	1ff
.	.	.	2a	2f	.
.	.	.	2g	1c	2ee
.	.	.	2e	.	2ee
=4	=4	=4	=4	=4	=4
0r	0r	1.a	2.f	2.d	2dd
.	.	.	.	.	2.ff
.	.	.	4e	4e	.
.	.	.	2d	4f	.
.	.	.	.	4g	4ee
.	.	2a	2f	4a	4cc
.	.	.	.	4b	4dd
=5	=5	=5	=5	=5	=5
0r	0r	2g	2c	2cc	2ee
.	.	2f	2d	2a	2ff
.	.	1b-	1G	2.g	4ee
.	.	.	.	.	4dd
.	.	.	.	.	[2dd
.	.	.	.	4f	.
=6	=6	=6	=6	=6	=6
2r	0r	2.a	1A	1e	2dd]
1A	.	.	.	.	4cc
.	.	8g	.	.	4b
.	.	8f	.	.	.
.	.	2e	2r	1a	2.cc
2A	.	2f#	2c	.	.
.	.	.	.	.	4a
=7	=7	=7	=7	=7	=7
2G	0r	2g	2d	1r	2b-
2F	.	2c	1f	.	1a
1B-	.	1d	.	2r	.
.	.	.	4e	[2dd	2g
.	.	.	4d	.	.
=8	=8	=8	=8	=8	=8
1A	2r	1r	1.e	2dd]	0a
.	1A	.	.	4cc	.
.	.	.	.	4b	.
1r	.	2r	.	2.cc	.
.	2A	2c	2f#	.	.
.	.	.	.	4a	.
=9	=9	=9	=9	=9	=9
0r	2G	2d	2g	2b-	2r
.	2F	1f	2c	1a	2a
.	1B-	.	1d	.	1dd
.	.	4e	.	2g	.
.	.	4d	.	.	.
=10	=10	=10	=10	=10	=10
1r	1A	1e	2r	[0a	2dd
.	.	.	2A	.	2cc
1D	1r	2f	1d	.	2dd
.	.	2d	.	.	2ff
=11	=11	=11	=11	=11	=11
1A	0r	0e	2d	1a]	1ee
.	.	.	2c	.	.
2A	.	.	2A	2r	[1ee
2G	.	.	2B	[2e	.
=12	=12	=12	=12	=12	=12
2A	1A	0r	4c	2e]	1ee]
.	.	.	4d	.	.
2c	.	.	4e	2.a	.
.	.	.	4c	.	.
1B	1d	.	1d	.	1r
.	.	.	.	8g#	.
.	.	.	.	8f#	.
.	.	.	.	2g#	.
=13	=13	=13	=13	=13	=13
1A	2d	2r	1e	1a	1ee
.	2c	2e	.	.	.
1r	2d	1a	1r	2r	2ff
.	2f	.	.	2a	2dd
=14	=14	=14	=14	=14	=14
2r	1e	2a	0r	2cc	2.ee
2E	.	2g	.	2b	.
.	.	.	.	.	4dd
2F	1A	2a	.	1a	4cc
.	.	.	.	.	4a
2D	.	2f	.	.	[2dd
=15	=15	=15	=15	=15	=15
1A	1r	0e	1r	2a	4dd]
.	.	.	.	.	4cc
.	.	.	.	2.a	2cc
1E	2r	.	2r	.	1b
.	.	.	.	4g#	.
.	2E	.	2e	2g#	.
=16	=16	=16	=16	=16	=16
0r	2F	0A	2c	2a	2a
.	2D	.	2f	2a	1dd
.	1A	.	1e	1a	.
.	.	.	.	.	2cc#
=17	=17	=17	=17	=17	=17
2r	1D	2r	0d	1f	1.dd
2A	.	2a	.	.	.
2B-	1r	2f	.	1r	.
2G	.	2g	.	.	2b-
=18	=18	=18	=18	=18	=18
2.d	0r	4a	0r	1f	1a
.	.	4g	.	.	.
.	.	4f	.	.	.
4c	.	4e	.	.	.
2B-	.	2d	.	2g	2r
2A	.	2c	.	2a	2cc
=19	=19	=19	=19	=19	=19
2G	1r	1g	2r	2b-	2dd
2c	.	.	1c	2g	2ee
1F	2r	1f	.	1a	4ff
.	.	.	.	.	4ee
.	2F	.	2d	.	4dd
.	.	.	.	.	4cc
=20	=20	=20	=20	=20	=20
0r	2G	0r	2e	2g	2b-
.	2A	.	2.f	4f	1a
.	.	.	.	4e	.
.	1B-	.	.	1d	.
.	.	.	4e	.	.
.	.	.	2d	.	2g
=21	=21	=21	=21	=21	=21
0r	1A	2r	4c	1e	1a
.	.	.	4A	.	.
.	.	2c	1c	.	.
.	1G	2d	.	2r	1r
.	.	2e	2B-	2g	.
=22	=22	=22	=22	=22	=22
2r	1F	2.f	1c	2a	0r
2F	.	.	.	2a	.
.	.	4e	.	.	.
2G	1r	2d	2r	2b-	.
2A	.	[2f	2c	[2a	.
=23	=23	=23	=23	=23	=23
1B-	0r	2f]	1d	2a]	1r
.	.	4e	.	2g	.
.	.	4d	.	.	.
2.A	.	2.c	1e	1a	2r
.	.	.	.	.	2cc
4G	.	4B	.	.	.
=24	=24	=24	=24	=24	=24
2F	2r	2A	2f	0r	2dd
2E	2G	2B	2g	.	2ee
1D	2A	1d	1f	.	1ff
.	2B	.	.	.	.
=25	=25	=25	=25	=25	=25
1C	1c	2.e	2r	2.g	1ee
.	.	.	2c	.	.
.	.	4f	.	4a	.
1r	2B	2g	2d	2b	2dd
.	2A	[2a	2e	2cc	[2cc
=26	=26	=26	=26	=26	=26
0r	1d	2a]	1f	2a	2cc]
.	.	2f	.	2b	2b
.	1c	2r	1e	4cc	4a
.	.	.	.	4b	4g
.	.	2c	.	4a	2cc
.	.	.	.	4g	.
=27	=27	=27	=27	=27	=27
2r	0r	2d	2d	2f	4b
.	.	.	.	.	4a
2C	.	2e	2c	2e	1a
2D	.	2f	1B	1r	.
2E	.	4e	.	.	2g#
.	.	4d	.	.	.
=28	=28	=28	=28	=28	=28
2.F	2r	1c	2A	2r	2a
.	2A	.	1f	1a	2cc
4E	.	.	.	.	.
2D	2d	1r	.	.	2dd
2A	2c#	.	2e	2a	2ee
=29	=29	=29	=29	=29	=29
1D	1d	0r	2d	2a	1ff
.	.	.	2f	2a	.
1r	1G	.	1g	1b-	2ee
.	.	.	.	.	2dd
=30	=30	=30	=30	=30	=30
2r	2.A	2r	1e	1a	2cc
2A	.	2c	.	.	2ee
.	4G	.	.	.	.
2d	4F	2d	1r	[1a	2ff
.	4D	.	.	.	.
2c#	2A	2e	.	.	[2ee
=31	=31	=31	=31	=31	=31
2d	1D	1f	1r	2a]	4ee]
.	.	.	.	.	4dd
2D	.	.	.	2a	2.dd
1A	1r	1e	2r	2a	.
.	.	.	.	.	4cc
.	.	.	2c	2a	2cc
=32	=32	=32	=32	=32	=32
0r	2r	2d	2d	2f	4b
.	.	.	.	.	4a
.	2C	2c	2e	2e	1a
.	2D	1B	2f	1r	.
.	2E	.	4e	.	2g#
.	.	.	4d	.	.
=33	=33	=33	=33	=33	=33
2r	2.F	[0A	2c	2r	[0a
2A	.	.	1f	2c	.
.	4E	.	.	.	.
2d	2D	.	.	2d	.
2c#	2A	.	2e	2e	.
=34	=34	=34	=34	=34	=34
2d	2D	1A_	2r	1f	1a_
2D	1d	.	2d	.	.
1A	.	1A_	1e	2e	1a_
.	2c#	.	.	2A	.
=35	=35	=35	=35	=35	=35
0D	2d	0A]	2.f	2.a	0a]
.	2D	.	.	.	.
.	.	.	4e	4g	.
.	4D	.	1d	1f	.
.	4E	.	.	.	.
.	4F	.	.	.	.
.	4G	.	.	.	.
=36	=36	=36	=36	=36	=36
[0AA	0A	[0A	[0c#	[0e	[0a
=37	=37	=37	=37	=37	=37
0AA]	0A	0A]	0c#]	0e]	0a]
==	==	==	==	==	==
*-	*-	*-	*-	*-	*-
!!!CDT: 1525/^1526/-1594/2/2
!!!OCY: Italia
!!!AGN: Mass (Parody)
!!!AST: renaissance, vocal
!!!ASW: Madrigal 1561 (Palestrina)
!!!PWK: Masses, Book 10
!!!RNB: Cadence finals: D
!!!YOR: Le Opere Complete, v. 27, p. 52
!!!YOO: Rome, Italy: Fratelli Scalera
!!!END: 1992//
!!!EED: John Miller
!!!YEC: Copyright 2000, John Miller
!!!YEN: United States of America
!!!YEM: Rights to all derivative electronic formats reserved.
!!!YEM: Refer to licensing agreement for further details.
!!!YEM: This file must be accompanied by the licensing agreement.
!!!YEM: A copy of the licensing agreement may be found at http://www.music-cog.ohio-state.edu/HumdrumDatabases/Palestrina/license.txt
!!!EMD: converted to Humdrum by Bret Aarden
